src/assets/selectIcons/armatura_5.svg

<svg xmlns="http://www.w3.org/2000/svg" viewBox="0 0 512 512"><path d="M0 0h512v512H0z"/><path fill="#fff" d="M155.8 25.14c-30.2.34-63.52 4.32-88.77 13.34-13.21 4.71-24.1 10.78-31.26 17.73-4.74 4.6-7.78 9.44-9.39 14.9 33.34.04 92.02 1.38 132.22 28.78 9.7-12.64 12-27.08 10.5-40.9-1.6-14.1-7.8-26.92-13.3-33.85zm200.4 0c-5.5 6.93-11.7 19.75-13.3 33.85-1.5 13.82.8 28.26 10.5 40.9 40.2-27.4 98.9-28.78 132.2-28.78-1.6-5.46-4.6-10.3-9.4-14.9-7.1-6.95-18-13.02-31.2-17.73-25.3-9.02-58.6-13-88.8-13.34zM187.4 66.59c0 7.94-1.2 16.14-3.9 24.16C205.8 112.5 231 123 256 123s50.2-10.5 72.5-32.26c-2.6-7.74-3.8-15.64-3.9-23.31-46.9 7.73-92.6 6.81-137.2-.84zm-84.3 30.26c-.8 15.65-1.8 32.45-3.24 50.25 9.44-3.2 19.54-8.2 29.14-14.6 7.5-5 14.6-10.8 20.8-16.9-12.8-8.9-29.3-14.8-46.7-18.75zm305.8.01c-17.4 3.94-33.9 9.84-46.7 18.74 6.2 6.1 13.3 11.9 20.8 16.9 9.6 6.3 19.7 11.4 29.1 14.6-1.4-17.7-2.4-34.6-3.2-50.24zM178 110.1c-9.6 14.2-23.6 27.1-39 37.4-13 8.7-27 15.5-40.55 18.9 5.35 6 10.95 12.5 16.45 19.3 22.2 14.6 40.8 21.3 61.1 21.3 20.9 0 44.6-7.4 76-23.1l4-2 4 2c31.4 15.7 55.1 23.1 76 23.1 20.3 0 38.9-6.7 61.1-21.3 5.5-6.8 11-13.3 16.4-19.3C400 163 386 156.2 373 147.5c-15.4-10.3-29.4-23.2-39-37.4-23.6 20.3-50.7 30.9-78 30.9-27.3 0-54.4-10.6-78-30.9zm-82.12 80.8c-9.74 94.8-28.76 207-63.29 302.4 24.59-12 50.33-21.9 76.81-29.6-8.3-19.7-16.54-50.7-5.9-82.5 14.3-43.2 40.6-85.3 47.4-95.7-1.4-12.2-11.8-34.7-26.4-56.5-8.7-13.1-18.8-26.3-28.62-38.1zm320.22 0c-9.9 11.8-19.9 25-28.6 38.1-14.6 21.8-25 44.3-26.4 56.5 6.8 10.4 33.1 52.5 47.4 95.7 10.6 31.8 2.4 62.8-5.9 82.5 26.5 7.7 52.2 17.6 76.8 29.6-34.5-95.4-53.5-207.6-63.3-302.4zM247 206.2c-26.7 12.2-49.4 18.8-71 18.8-12.7 0-24.8-2.3-37-6.7.2.3.3.5.5.7 15.2 22.8 27.4 45 29.2 64.4 6.4 5.3 17.9 10.4 32.4 13.8 5.2 1.2 10.8 2.3 16.5 3.1 2.3-4.9 6-9.2 10.4-12.5 5.3-4 11.8-6.7 19-8v-73.6zm18 0v73.6c7.2 1.3 13.7 4 19 8 4.4 3.3 8.1 7.6 10.4 12.5 5.7-.8 11.3-1.9 16.5-3.1 14.5-3.4 26-8.5 32.4-13.8 1.8-19.4 14-41.6 29.2-64.4.2-.2.3-.4.5-.7-12.2 4.4-24.3 6.7-37 6.7-21.6 0-44.3-6.6-71-18.8zm-9 90.8c-7 0-13.2 2.2-17.2 5.2-4.1 3.1-5.8 6.4-5.8 9.8 0 3.4 1.7 6.7 5.8 9.8 4 3 10.2 5.2 17.2 5.2s13.2-2.2 17.2-5.2c4.1-3.1 5.8-6.4 5.8-9.8 0-3.4-1.7-6.7-5.8-9.8-4-3-10.2-5.2-17.2-5.2zm-93.8 4.3c-8.7 14-29.6 49.3-41.7 85.5-13.3 40.1 10.5 80.8 13.8 86.2 30 14.2 75.8 22 121.7 22 45.9 0 91.7-7.8 121.7-22 3.3-5.4 27.1-46.1 13.8-86.2-12.1-36.2-33-71.5-41.7-85.5-9.4 6.1-21.4 10.4-34.7 13.5-6 1.4-12.3 2.6-18.9 3.5-1.7 7.2-6.3 13.4-12.2 17.9-7.5 5.6-17.3 8.8-28 8.8s-20.5-3.2-28-8.8c-5.9-4.5-10.5-10.7-12.2-17.9-6.6-.9-12.9-2.1-18.9-3.5-13.3-3.1-25.3-7.4-34.7-13.5z"/></svg>

<?xml version="1.0" encoding="UTF-8" standalone="no"?>
<!DOCTYPE svg PUBLIC "-//W3C//DTD SVG 1.1//EN" "http://www.w3.org/Graphics/SVG/1.1/DTD/svg11.dtd">
<svg width="100%" height="100%" viewBox="0 0 512 512" version="1.1" xmlns="http://www.w3.org/2000/svg" xmlns:xlink="http://www.w3.org/1999/xlink" xml:space="preserve" xmlns:serif="http://www.serif.com/" style="fill-rule:evenodd;clip-rule:evenodd;stroke-linejoin:round;stroke-miterlimit:2;">
    <rect x="0" y="0" width="512" height="512" style="fill-rule:nonzero;"/>
    <path d="M178,110.1C168.4,124.3 154.4,137.2 139,147.5C126,156.2 112,163 98.45,166.4C103.8,172.4 109.4,178.9 114.9,185.7C137.1,200.3 155.7,207 176,207C196.9,207 220.6,199.6 252,183.9L256,181.9L260,183.9C291.4,199.6 315.1,207 336,207C356.3,207 374.9,200.3 397.1,185.7C402.6,178.9 408.1,172.4 413.5,166.4C400,163 386,156.2 373,147.5C357.6,137.2 343.6,124.3 334,110.1C310.4,130.4 283.3,141 256,141C228.7,141 201.6,130.4 178,110.1ZM247,206.2C220.3,218.4 197.6,225 176,225C163.3,225 151.2,222.7 139,218.3C139.2,218.6 139.3,218.8 139.5,219C154.7,241.8 166.9,264 168.7,283.4C175.1,288.7 186.6,293.8 201.1,297.2C206.3,298.4 211.9,299.5 217.6,300.3C219.9,295.4 223.6,291.1 228,287.8C233.3,283.8 239.8,281.1 247,279.8L247,206.2ZM265,206.2L265,279.8C272.2,281.1 278.7,283.8 284,287.8C288.4,291.1 292.1,295.4 294.4,300.3C300.1,299.5 305.7,298.4 310.9,297.2C325.4,293.8 336.9,288.7 343.3,283.4C345.1,264 357.3,241.8 372.5,219C372.7,218.8 372.8,218.6 373,218.3C360.8,222.7 348.7,225 336,225C314.4,225 291.7,218.4 265,206.2ZM162.2,301.3C153.5,315.3 132.6,350.6 120.5,386.8C107.2,426.9 131,467.6 134.3,473C164.3,487.2 210.1,495 256,495C301.9,495 347.7,487.2 377.7,473C381,467.6 404.8,426.9 391.5,386.8C379.4,350.6 358.5,315.3 349.8,301.3C340.4,307.4 328.4,311.7 315.1,314.8C309.1,316.2 302.8,317.4 296.2,318.3C294.5,325.5 289.9,331.7 284,336.2C276.5,341.8 266.7,345 256,345C245.3,345 235.5,341.8 228,336.2C222.1,331.7 217.5,325.5 215.8,318.3C209.2,317.4 202.9,316.2 196.9,314.8C183.6,311.7 171.6,307.4 162.2,301.3Z" style="fill:rgb(150,150,150);fill-rule:nonzero;"/>
    <path d="M103.1,96.85C120.5,100.8 137,106.7 149.8,115.6C143.6,121.7 136.5,127.5 129,132.5C119.4,138.9 109.3,143.9 99.86,147.1C101.3,129.3 102.3,112.5 103.1,96.85ZM408.9,96.86C409.7,112.5 410.7,129.4 412.1,147.1C402.7,143.9 392.6,138.8 383,132.5C375.5,127.5 368.4,121.7 362.2,115.6C375,106.7 391.5,100.8 408.9,96.86ZM95.88,190.9C105.7,202.7 115.8,215.9 124.5,229C139.1,250.8 149.5,273.3 150.9,285.5C144.1,295.9 117.8,338 103.5,381.2C92.86,413 101.1,444 109.4,463.7C82.92,471.4 57.18,481.3 32.59,493.3C67.12,397.9 86.14,285.7 95.88,190.9ZM416.1,190.9C425.9,285.7 444.9,397.9 479.4,493.3C454.8,481.3 429.1,471.4 402.6,463.7C410.9,444 419.1,413 408.5,381.2C394.2,338 367.9,295.9 361.1,285.5C362.5,273.3 372.9,250.8 387.5,229C396.2,215.9 406.2,202.7 416.1,190.9Z" style="fill:rgb(233,77,77);"/>
    <path d="M155.8,25.14C161.3,32.07 167.5,44.89 169.1,58.99C170.6,72.81 168.3,87.25 158.6,99.89C118.4,72.49 59.72,71.15 26.38,71.11C27.99,65.65 31.03,60.81 35.77,56.21C42.93,49.26 53.82,43.19 67.03,38.48C92.28,29.46 125.6,25.48 155.8,25.14ZM356.2,25.14C386.4,25.48 419.7,29.46 445,38.48C458.2,43.19 469.1,49.26 476.2,56.21C481,60.81 484,65.65 485.6,71.11C452.3,71.11 393.6,72.49 353.4,99.89C343.7,87.25 341.4,72.81 342.9,58.99C344.5,44.89 350.7,32.07 356.2,25.14ZM187.4,66.59C232,74.24 277.7,75.16 324.6,67.43C324.7,75.1 325.9,83 328.5,90.74C306.2,112.5 281,123 256,123C231,123 205.8,112.5 183.5,90.75C186.2,82.73 187.4,74.53 187.4,66.59Z" style="fill:rgb(210,194,146);"/>
    <path d="M256,297C263,297 269.2,299.2 273.2,302.2C277.3,305.3 279,308.6 279,312C279,315.4 277.3,318.7 273.2,321.8C269.2,324.8 263,327 256,327C249,327 242.8,324.8 238.8,321.8C234.7,318.7 233,315.4 233,312C233,308.6 234.7,305.3 238.8,302.2C242.8,299.2 249,297 256,297Z" style="fill:rgb(198,255,0);"/>
</svg>
